projects/flag-game/flags/Laos.svg

<svg viewBox="0 0 1000 667" xmlns="http://www.w3.org/2000/svg" xmlns:xlink="http://www.w3.org/1999/xlink"><clipPath id="a"><path d="m0 0h1000v666.71875h-1000zm0 0"/></clipPath><g clip-path="url(#a)"><path d="m0 666.667969v-666.667969h1000v666.667969zm0 0" fill="#ce1126" fill-rule="evenodd"/></g><g fill-rule="evenodd"><path d="m0 166.667969h1000v333.332031h-1000zm0 0" fill="#002868"/><path d="m633.332031 333.332031c0 73.644531-59.691406 133.335938-133.332031 133.335938s-133.332031-59.691407-133.332031-133.335938c0-73.640625 59.691406-133.332031 133.332031-133.332031s133.332031 59.691406 133.332031 133.332031zm0 0" fill="#fff"/></g></svg>

<?xml version="1.0" encoding="UTF-8"?>
<svg xmlns="http://www.w3.org/2000/svg" xmlns:xlink="http://www.w3.org/1999/xlink" viewBox="0 0 1000 667" version="1.1">
<defs>
<clipPath id="clip1">
  <path d="M 0 0 L 1000 0 L 1000 666.71875 L 0 666.71875 Z M 0 0 "/>
</clipPath>
</defs>
<g id="surface670">
<g clip-path="url(#clip1)" clip-rule="nonzero">
<path style=" stroke:none;fill-rule:evenodd;fill:rgb(80.783081%,6.666565%,14.901733%);fill-opacity:1;" d="M 0 666.667969 L 0 0 L 1000 0 L 1000 666.667969 Z M 0 666.667969 "/>
</g>
<path style=" stroke:none;fill-rule:evenodd;fill:rgb(0%,15.686035%,40.783691%);fill-opacity:1;" d="M 0 166.667969 L 1000 166.667969 L 1000 500 L 0 500 Z M 0 166.667969 "/>
<path style=" stroke:none;fill-rule:evenodd;fill:rgb(99.998474%,99.998474%,99.998474%);fill-opacity:1;" d="M 633.332031 333.332031 C 633.332031 406.976562 573.640625 466.667969 500 466.667969 C 426.359375 466.667969 366.667969 406.976562 366.667969 333.332031 C 366.667969 259.691406 426.359375 200 500 200 C 573.640625 200 633.332031 259.691406 633.332031 333.332031 Z M 633.332031 333.332031 "/>
</g>
</svg>
